src/icons/1x3.svg

<svg xmlns="http://www.w3.org/2000/svg" width="512" height="512" viewBox="0 0 512 512">
    <path d="M96 89.5h85.4v320H96v-320zm118 0h85.4v320H214v-320zm116.6 0H416v320h-85.4v-320z"/>
</svg>

<?xml version="1.0" encoding="UTF-8"?>
<svg width="512px" height="512px" viewBox="0 0 512 512" version="1.1" xmlns="http://www.w3.org/2000/svg" xmlns:xlink="http://www.w3.org/1999/xlink">
    <!-- Generator: Sketch 62 (91390) - https://sketch.com -->
    <title>1x3</title>
    <desc>Created with Sketch.</desc>
    <g id="1x3" stroke="none" stroke-width="1" fill="none" fill-rule="evenodd">
        <path d="M96,89.5 L181.4,89.5 L181.4,409.5 L96,409.5 L96,89.5 Z M214,89.5 L299.4,89.5 L299.4,409.5 L214,409.5 L214,89.5 Z M330.6,89.5 L416,89.5 L416,409.5 L330.6,409.5 L330.6,89.5 Z" id="Shape" fill="#000000" fill-rule="nonzero"></path>
    </g>
</svg>
